!!!!SEGMENT: pl-kk--kk-i-69--008_anonim--protexisti-pro-festo-benedictus.krn
!!!cenid: 17xx:2289
!!!COM: Anonim
!!!COM-rismID: pe30004985
!!!CDT:
!!!CNT:
!!!OPR: Protexisti pro festo
!!!OTL: Benedictus
!!!OMV: 008
!!!PDT:
!!!AGN: Sacred; Mass
!!!SMS-siglum: PL-Kk
!!!SMS-shelfmark: Kk.I.69
!!!SMS-shelfwork: 001-008 M
!!!SMS-variant:
!!!SMS-altvar:
!!!NIFC-rismSourceID: 1001154789
!!!NIFC-rismChildID: 1001154789
!!!NIFC-islandoraID: pl-kk:15747
!!!URL-pdf-islandora: https://repozytorium.nifc.pl/islandora/object/pl-kk%3A15747/datastream/PDF/view
!!!URL-scan: https://polish.musicsources.pl/pl/lokalizacje/galeria/rekopisy/7324/1 @EN{Scan on Polish Music Sources Website} @PL{Skany w portalu Dziedzictwo Muzyki Polskiej w otwartym dostępie}
!!!ONB-nifc: UWAGA: części Mszy: 1. Protexisti me, 2. Kyrie, 3. Et in terra, 4. Alleluia, 5. Patrem, 6. Posuisti Domine, 7. Sanctus, 8. Benedictus, 9. Agnus Dei, 10. Dona nobis, 11. Deo gratias
!!!AIN: 1 empty 2 tenor
!!!key:
**kern	**text	**kern	**text	**kern	**text
*part3	*part3	*part2	*part2	*part1	*part1
*staff3	*staff3	*staff2	*staff2	*staff1	*staff1
*Iempty	*	*Itenor	*	*Itenor	*
*I"Baſso	*	*I"Tenore Secundo	*	*I"Tenore Primo	*
*I'B	*	*I'T 2	*	*I'T 1	*
*clefF4	*	*clefC4	*	*clefC4	*
*k[]	*	*k[]	*	*k[]	*
*C:	*	*C:	*	*C:	*
*M3/2	*	*M3/2	*	*M3/2	*
=1	=1	=1	=1	=1	=1
*	*	*2\right	*	*2\right	*
2C/	Be-	2e\	Be-	2g\	Be-
2E/	.	2c\	.	2e\	.
2C/	-ne-	2e\	-ne-	2g\	-ne-
=2	=2	=2	=2	=2	=2
*2\right	*	*	*	*	*
2F\	-di-	2d\	-dic-	2f\	-dic-
1G	.	2c\	.	2e\	.
.	.	2B\	.	2d\	.
=3	=3	=3	=3	=3	=3
2C/	-ctus	2G/	-tus	2e\	-tus
2r	.	2r	.	2r	.
4C/	qui	4e\	qui	4g\	qui
4E/	.	4c\	.	4e\	.
=4	=4	=4	=4	=4	=4
2G\	ve-	2c\	ve-	2e\	ve-
2G\	-nit	2B\	-nit	2d\	-nit
2G\	qui	4f\	qui	4a\	qui
.	.	4d\	.	4f\	.
=5	=5	=5	=5	=5	=5
2c\	ve-	2d\	ve-	2f\	ve-
2C/	-nit	2G/	-nit	2e\	-nit
2C/	in	2e\	in	2g\	in
!LO:LB:g=original	!	!LO:LB:g=original	!	!LO:LB:g=original	!
=6	=6	=6	=6	=6	=6
2.C/	no-	2.e\	no-	2.g\	no-
4D/	-mi-	4d\	-mi-	4f\	-mi-
2E\	-ne	2c\	-ne	2e\	-ne
=7	=7	=7	=7	=7	=7
2B\	Do-	1d	do-	1f	do-
2G\	.	.	.	.	.
2c\	-mi-	2c\	-mi-	2e\	-mi-
=8	=8	=8	=8	=8	=8
1G	-ni	1B	-ni	1d	-ni
2r	.	2r	.	2r	.
=9	=9	=9	=9	=9	=9
2C/	Be-	4e\	Be-	4g\	Be-
.	.	4d\	.	4f\	.
2E/	.	2c\	.	4e\	.
.	.	.	.	4g\	.
2C/	-ne-	4c\	-ne-	4e\	-ne-
.	.	4B-X\	.	4d\	.
=10	=10	=10	=10	=10	=10
2F\	-dic-	2A/	-dic-	2c\	-di-
2C/	.	2G/	.	2B-X\	.
2F\	-tus	2c\	-tus	2A\	-ctus
!	!	!LO:PB:g=original	!	!	!
=11	=11	=11	=11	=11	=11
!	!	!LO:TX:a:t=d	!	!	!
2D\	qui	1d	qui	4a\	qui
.	.	.	.	4g\	.
2F#X\	.	.	.	4f#X\	.
.	.	.	.	4e\	.
!	!	!	!	!LO:LB:g=original	!
=-	=-	=-	=-	=-	=-
2D\	.	4B\	.	4d\	.
.	.	4A\	.	4c\	.
!LO:PB:g=original	!	!	!	!	!
=12	=12	=12	=12	=12	=12
2F#X\	ve-	2A\	ve-	2c\	ve-
2G\	nit	2d\	-nit	2Bn\	-nit
2G\	in	2B\	in	2g\	in
=13	=13	=13	=13	=13	=13
2.A\	no-	2.c\	no-	2.f#X\	no-
4A\	-mi-	4c\	-mi-	4f#\	-mi-
4A\	-ne	4c\	-ne	4f#\	-ne
4A\	in	4c\	in	4f#\	in
=14	=14	=14	=14	=14	=14
2.B\	no-	2.d\	no-	2.fn\	no-
4B\	-mi-	4d\	-mi-	4f\	-mi-
2B\	-ne	2d\	-ne	2f\	-ne
=15	=15	=15	=15	=15	=15
2c\	Do-	2e\	Do-	2g\	Do-
2G\	.	2d\	.	2f\	.
2E\	.	2c\	.	2e\	.
=16	=16	=16	=16	=16	=16
2F\	.	2A\	.	2f\	.
2G\	.	2c\	.	2e\	.
2G\	mi-	2B\	-mi-	2d\	-mi-
!	!	!LO:LB:g=original	!	!LO:LB:g=original	!
=17	=17	=17	=17	=17	=17
2C/	-ni	2G/	-ni	2e\	-ni
2r	.	2r	.	2r	.
2C/	in	2G/	in	2e\	in
!LO:LB:g=original	!	!	!	!	!
=18	=18	=18	=18	=18	=18
2.C/	no-	2.G/	no-	2.d\	no-
4C/	-mi-	4c\	-mi-	4e\	-mi-
2BB/	-ne	2d\	-ne	2f\	-ne
=19	=19	=19	=19	=19	=19
2C/	Do-	2c\	Do-	2e\	Do-
2F\	.	1c	.	2a\	.
2E\	.	.	.	2g\	.
=20	=20	=20	=20	=20	=20
2F\	.	2A\	.	2f\	.
2G\	.	2c\	.	2e\	.
2G\	-mi-	2B\	-mi-	2d\	-mi-
=21	=21	=21	=21	=21	=21
!	!	!LO:TX:a:t=Osanna da Capo	!	!LO:TX:b:t=Osanna da\nCapo	!
1C	-ni	1.G	-ni	1.e	-ni
!LO:TX:a:t=Osanna da Capo	!	!	!	!	!
2r	.	.	.	.	.
!LO:LB:g=original	!	!LO:LB:g=original	!	!LO:LB:g=original	!
==	==	==	==	==	==
*-	*-	*-	*-	*-	*-
!!!system-decoration: [(s1,s2,s3)]
!!!ENC: Marta Chmielewska
!!!END: 2021-08-06
!!!ENC: Marcin Jachim
!!!END: 2021-07-09
!!!YEC: Copyright 2022 Narodowy Instytut Fryderyka Chopina (https://polishscores.org)
!!!YEM: License CC-BY-4.0 (https://creativecommons.org/licenses/by/4.0)
